packages/solana/public/assets/icons/platforms/solana.svg

<svg width="646" height="96" viewBox="0 0 646 96" fill="none" xmlns="http://www.w3.org/2000/svg">
<g clip-path="url(#clip0_1064_606)">
<path d="M108.53 75.6899L90.81 94.6899C90.4267 95.1026 89.9626 95.432 89.4464 95.6573C88.9303 95.8827 88.3732 95.9994 87.81 95.9999H3.81C3.40937 95.9997 3.01749 95.8827 2.68235 95.6631C2.34722 95.4436 2.08338 95.1311 1.92313 94.7639C1.76288 94.3967 1.71318 93.9908 1.78012 93.5958C1.84706 93.2008 2.02772 92.8338 2.3 92.5399L20 73.5399C20.3833 73.1273 20.8474 72.7979 21.3636 72.5725C21.8797 72.3472 22.4368 72.2305 23 72.2299H107C107.404 72.2216 107.802 72.333 108.143 72.5502C108.484 72.7674 108.754 73.0806 108.917 73.4504C109.081 73.8203 109.131 74.2303 109.062 74.6288C108.993 75.0273 108.808 75.3965 108.53 75.6899ZM90.81 37.4199C90.4253 37.0091 89.9608 36.6811 89.445 36.4558C88.9292 36.2306 88.3728 36.1129 87.81 36.11H3.81C3.40937 36.1102 3.01749 36.2272 2.68235 36.4468C2.34722 36.6663 2.08338 36.9788 1.92313 37.346C1.76288 37.7132 1.71318 38.1191 1.78012 38.5141C1.84706 38.9091 2.02772 39.2761 2.3 39.57L20 58.58C20.3847 58.9908 20.8492 59.3188 21.365 59.5441C21.8808 59.7693 22.4372 59.887 23 59.8899H107C107.4 59.8878 107.79 59.7693 108.124 59.5491C108.458 59.3288 108.72 59.0162 108.879 58.6494C109.038 58.2826 109.087 57.8774 109.019 57.4833C108.952 57.0892 108.772 56.7232 108.5 56.43L90.81 37.4199ZM3.81 23.7699H87.81C88.3732 23.7694 88.9303 23.6527 89.4464 23.4273C89.9626 23.202 90.4267 22.8726 90.81 22.4599L108.53 3.45995C108.808 3.16647 108.993 2.79726 109.062 2.39877C109.131 2.00028 109.081 1.59031 108.917 1.22045C108.754 0.850591 108.484 0.537368 108.143 0.320195C107.802 0.103021 107.404 -0.0084012 107 -5.10783e-05H23C22.4368 0.000541762 21.8797 0.117167 21.3636 0.342553C20.8474 0.567938 20.3833 0.897249 20 1.30995L2.3 20.3099C2.02772 20.6038 1.84706 20.9708 1.78012 21.3658C1.71318 21.7608 1.76288 22.1667 1.92313 22.5339C2.08338 22.9011 2.34722 23.2136 2.68235 23.4331C3.01749 23.6527 3.40937 23.7697 3.81 23.7699Z" fill="url(#paint0_linear_1064_606)"/>
<path d="M210.94 40.6002H166V25.8002H222.62V11.0002H165.85C163.91 10.9897 161.988 11.3613 160.192 12.0938C158.396 12.8264 156.761 13.9055 155.383 15.2696C154.004 16.6337 152.907 18.2561 152.155 20.044C151.403 21.832 151.01 23.7506 151 25.6902V40.6902C151.008 42.6315 151.398 44.5523 152.149 46.3425C152.9 48.1328 153.996 49.7575 155.375 51.1237C156.755 52.49 158.39 53.5709 160.187 54.3047C161.984 55.0385 163.909 55.4108 165.85 55.4002H210.85V70.2002H152.07V85.0002H210.94C212.88 85.0108 214.802 84.6391 216.598 83.9066C218.394 83.174 220.029 82.0949 221.407 80.7308C222.786 79.3667 223.883 77.7444 224.635 75.9564C225.387 74.1684 225.78 72.2498 225.79 70.3102V55.3102C225.782 53.3689 225.392 51.4482 224.641 49.6579C223.89 47.8676 222.794 46.2429 221.415 44.8767C220.035 43.5105 218.4 42.4296 216.603 41.6958C214.806 40.962 212.881 40.5897 210.94 40.6002Z" fill="white"/>
<path d="M298 11H252.89C250.947 10.9842 249.02 11.3519 247.219 12.0821C245.419 12.8123 243.78 13.8905 242.397 15.2552C241.013 16.6198 239.913 18.2439 239.159 20.0345C238.404 21.8251 238.01 23.747 238 25.69V70.31C238.01 72.253 238.404 74.1749 239.159 75.9655C239.913 77.7561 241.013 79.3802 242.397 80.7448C243.78 82.1095 245.419 83.1877 247.219 83.9179C249.02 84.6481 250.947 85.0158 252.89 85H298C299.94 85.0105 301.862 84.6389 303.658 83.9064C305.454 83.1738 307.089 82.0947 308.467 80.7306C309.846 79.3665 310.943 77.7441 311.695 75.9562C312.447 74.1682 312.84 72.2496 312.85 70.31V25.69C312.84 23.7504 312.447 21.8318 311.695 20.0438C310.943 18.2559 309.846 16.6335 308.467 15.2694C307.089 13.9053 305.454 12.8262 303.658 12.0936C301.862 11.3611 299.94 10.9895 298 11ZM297.89 70.2H253V25.8H297.87L297.89 70.2Z" fill="white"/>
<path d="M456 11.0001H412C410.06 10.9896 408.138 11.3612 406.342 12.0937C404.546 12.8263 402.911 13.9054 401.533 15.2695C400.154 16.6336 399.057 18.256 398.305 20.0439C397.553 21.8319 397.16 23.7505 397.15 25.6901V85.0001H412.15V60.6901H455.95V85.0001H470.95V25.6901C470.94 23.742 470.544 21.8152 469.786 20.0206C469.027 18.2261 467.922 16.5993 466.532 15.2338C465.143 13.8684 463.497 12.7914 461.689 12.0648C459.881 11.3382 457.948 10.9764 456 11.0001ZM455.89 45.8901H412.09V25.8001H455.89V45.8901Z" fill="white"/>
<path d="M631.15 11.0002H587.15C585.21 10.9897 583.288 11.3613 581.492 12.0938C579.696 12.8264 578.062 13.9055 576.683 15.2696C575.304 16.6337 574.207 18.2561 573.455 20.044C572.703 21.832 572.31 23.7506 572.3 25.6902V85.0002H587.3V60.6902H631V85.0002H646V25.6902C645.99 23.7506 645.597 21.832 644.845 20.044C644.093 18.2561 642.996 16.6337 641.617 15.2696C640.238 13.9055 638.604 12.8264 636.808 12.0938C635.012 11.3613 633.09 10.9897 631.15 11.0002ZM631 45.8902H587.2V25.8002H631V45.8902Z" fill="white"/>
<path d="M544 70.2001H538L516.55 17.2001C515.815 15.3716 514.55 13.8045 512.918 12.6999C511.286 11.5952 509.361 11.0033 507.39 11.0001H494.08C492.786 10.9935 491.504 11.2418 490.307 11.7307C489.109 12.2197 488.02 12.9397 487.1 13.8497C486.181 14.7598 485.45 15.8419 484.949 17.0345C484.448 18.227 484.187 19.5066 484.18 20.8001V85.0001H499.18V25.8001H505.18L526.62 78.8001C527.367 80.6251 528.642 82.1858 530.281 83.283C531.919 84.3803 533.848 84.9641 535.82 84.9601H549.13C550.424 84.9667 551.706 84.7185 552.903 84.2295C554.101 83.7406 555.19 83.0205 556.11 82.1105C557.029 81.2005 557.76 80.1183 558.261 78.9258C558.762 77.7332 559.023 76.4537 559.03 75.1601V11.0001H544V70.2001Z" fill="white"/>
<path d="M341.1 11H326.1V70.31C326.11 72.2539 326.505 74.1766 327.26 75.9678C328.015 77.7591 329.116 79.3836 330.5 80.7484C331.884 82.1132 333.525 83.1912 335.326 83.9208C337.128 84.6504 339.056 85.0171 341 85H386V70.2H341.1V11Z" fill="white"/>
</g>
<defs>
<linearGradient id="paint0_linear_1064_606" x1="10.81" y1="98.29" x2="98.89" y2="-1.01005" gradientUnits="userSpaceOnUse">
<stop offset="0.08" stop-color="#9945FF"/>
<stop offset="0.3" stop-color="#8752F3"/>
<stop offset="0.5" stop-color="#5497D5"/>
<stop offset="0.6" stop-color="#43B4CA"/>
<stop offset="0.72" stop-color="#28E0B9"/>
<stop offset="0.97" stop-color="#19FB9B"/>
</linearGradient>
<clipPath id="clip0_1064_606">
<rect width="646" height="96" fill="white"/>
</clipPath>
</defs>
</svg>

<?xml version="1.0" encoding="utf-8"?>
<!-- Generator: Adobe Illustrator 26.5.0, SVG Export Plug-In . SVG Version: 6.00 Build 0)  -->
<svg version="1.1" id="Layer_1" xmlns="http://www.w3.org/2000/svg" xmlns:xlink="http://www.w3.org/1999/xlink" x="0px" y="0px"
	 viewBox="0 0 646 96" style="enable-background:new 0 0 646 96;" xml:space="preserve">
<style type="text/css">
	.st0{clip-path:url(#SVGID_00000174597896475904580220000000314101065247731335_);}
	.st1{fill:url(#SVGID_00000137112336950796380480000017649783722122285979_);}
</style>
<g>
	<defs>
		<rect id="SVGID_1_" width="646" height="96"/>
	</defs>
	<clipPath id="SVGID_00000154399139317913724790000002037252617449083777_">
		<use xlink:href="#SVGID_1_"  style="overflow:visible;"/>
	</clipPath>
	<g style="clip-path:url(#SVGID_00000154399139317913724790000002037252617449083777_);">
		
			<linearGradient id="SVGID_00000075125285150888845340000009795401947090497199_" gradientUnits="userSpaceOnUse" x1="10.8087" y1="-0.2888" x2="98.8887" y2="99.0112" gradientTransform="matrix(1 0 0 -1 0 98)">
			<stop  offset="8.000000e-02" style="stop-color:#9945FF"/>
			<stop  offset="0.3" style="stop-color:#8752F3"/>
			<stop  offset="0.5" style="stop-color:#5497D5"/>
			<stop  offset="0.6" style="stop-color:#43B4CA"/>
			<stop  offset="0.72" style="stop-color:#28E0B9"/>
			<stop  offset="0.97" style="stop-color:#19FB9B"/>
		</linearGradient>
		<path style="fill:url(#SVGID_00000075125285150888845340000009795401947090497199_);" d="M108.5,75.7l-17.7,19
			c-0.4,0.4-0.8,0.7-1.4,1c-0.5,0.2-1.1,0.3-1.6,0.3h-84c-0.4,0-0.8-0.1-1.1-0.3c-0.3-0.2-0.6-0.5-0.8-0.9S1.7,94,1.8,93.6
			c0.1-0.4,0.2-0.8,0.5-1.1l17.7-19c0.4-0.4,0.8-0.7,1.4-1c0.5-0.2,1.1-0.3,1.6-0.3h84c0.4,0,0.8,0.1,1.1,0.3
			c0.3,0.2,0.6,0.5,0.8,0.9c0.2,0.4,0.2,0.8,0.1,1.2S108.8,75.4,108.5,75.7z M90.8,37.4c-0.4-0.4-0.8-0.7-1.4-1
			c-0.5-0.2-1.1-0.3-1.6-0.3h-84c-0.4,0-0.8,0.1-1.1,0.3c-0.3,0.2-0.6,0.5-0.8,0.9s-0.2,0.8-0.1,1.2c0.1,0.4,0.2,0.8,0.5,1.1
			l17.7,19c0.4,0.4,0.8,0.7,1.4,1c0.5,0.2,1.1,0.3,1.6,0.3h84c0.4,0,0.8-0.1,1.1-0.3c0.3-0.2,0.6-0.5,0.8-0.9
			c0.2-0.4,0.2-0.8,0.1-1.2c-0.1-0.4-0.2-0.8-0.5-1.1L90.8,37.4z M3.8,23.8h84c0.6,0,1.1-0.1,1.6-0.3c0.5-0.2,1-0.6,1.4-1l17.7-19
			c0.3-0.3,0.5-0.7,0.5-1.1s0-0.8-0.1-1.2c-0.2-0.4-0.4-0.7-0.8-0.9C107.8,0.1,107.4,0,107,0H23c-0.6,0-1.1,0.1-1.6,0.3
			c-0.5,0.2-1,0.6-1.4,1l-17.7,19C2,20.6,1.8,21,1.8,21.4c-0.1,0.4,0,0.8,0.1,1.2c0.2,0.4,0.4,0.7,0.8,0.9C3,23.7,3.4,23.8,3.8,23.8
			z"/>
		<path d="M210.9,40.6H166V25.8h56.6V11h-56.8c-1.9,0-3.9,0.4-5.7,1.1c-1.8,0.7-3.4,1.8-4.8,3.2c-1.4,1.4-2.5,3-3.2,4.8
			c-0.8,1.8-1.1,3.7-1.2,5.6v15c0,1.9,0.4,3.9,1.1,5.7c0.8,1.8,1.8,3.4,3.2,4.8c1.4,1.4,3,2.4,4.8,3.2c1.8,0.7,3.7,1.1,5.7,1.1h45
			v14.8h-58.8V85h58.9c1.9,0,3.9-0.4,5.7-1.1c1.8-0.7,3.4-1.8,4.8-3.2c1.4-1.4,2.5-3,3.2-4.8c0.8-1.8,1.1-3.7,1.2-5.6v-15
			c0-1.9-0.4-3.9-1.1-5.7c-0.8-1.8-1.8-3.4-3.2-4.8c-1.4-1.4-3-2.4-4.8-3.2S212.9,40.6,210.9,40.6z"/>
		<path d="M298,11h-45.1c-1.9,0-3.9,0.4-5.7,1.1c-1.8,0.7-3.4,1.8-4.8,3.2c-1.4,1.4-2.5,3-3.2,4.8c-0.8,1.8-1.1,3.7-1.2,5.7v44.6
			c0,1.9,0.4,3.9,1.2,5.7c0.8,1.8,1.9,3.4,3.2,4.8c1.4,1.4,3,2.4,4.8,3.2c1.8,0.7,3.7,1.1,5.7,1.1H298c1.9,0,3.9-0.4,5.7-1.1
			c1.8-0.7,3.4-1.8,4.8-3.2c1.4-1.4,2.5-3,3.2-4.8c0.8-1.8,1.1-3.7,1.2-5.6V25.7c0-1.9-0.4-3.9-1.2-5.6c-0.8-1.8-1.8-3.4-3.2-4.8
			c-1.4-1.4-3-2.4-4.8-3.2C301.9,11.4,299.9,11,298,11z M297.9,70.2H253V25.8h44.9L297.9,70.2z"/>
		<path d="M456,11h-44c-1.9,0-3.9,0.4-5.7,1.1c-1.8,0.7-3.4,1.8-4.8,3.2c-1.4,1.4-2.5,3-3.2,4.8c-0.8,1.8-1.1,3.7-1.2,5.6V85h15
			V60.7H456V85h15V25.7c0-1.9-0.4-3.9-1.2-5.7c-0.8-1.8-1.9-3.4-3.3-4.8c-1.4-1.4-3-2.4-4.8-3.2C459.9,11.3,457.9,11,456,11z
			 M455.9,45.9h-43.8V25.8h43.8V45.9z"/>
		<path d="M631.2,11h-44c-1.9,0-3.9,0.4-5.7,1.1c-1.8,0.7-3.4,1.8-4.8,3.2c-1.4,1.4-2.5,3-3.2,4.8c-0.8,1.8-1.1,3.7-1.2,5.6V85h15
			V60.7H631V85h15V25.7c0-1.9-0.4-3.9-1.2-5.6c-0.8-1.8-1.8-3.4-3.2-4.8c-1.4-1.4-3-2.4-4.8-3.2C635,11.4,633.1,11,631.2,11z
			 M631,45.9h-43.8V25.8H631V45.9z"/>
		<path d="M544,70.2h-6l-21.5-53c-0.7-1.8-2-3.4-3.6-4.5c-1.6-1.1-3.6-1.7-5.5-1.7h-13.3c-1.3,0-2.6,0.2-3.8,0.7
			c-1.2,0.5-2.3,1.2-3.2,2.1c-0.9,0.9-1.6,2-2.2,3.2c-0.5,1.2-0.8,2.5-0.8,3.8V85h15V25.8h6l21.4,53c0.7,1.8,2,3.4,3.7,4.5
			c1.6,1.1,3.6,1.7,5.5,1.7h13.3c1.3,0,2.6-0.2,3.8-0.7c1.2-0.5,2.3-1.2,3.2-2.1c0.9-0.9,1.7-2,2.2-3.2c0.5-1.2,0.8-2.5,0.8-3.8V11
			h-15V70.2z"/>
		<path d="M341.1,11h-15v59.3c0,1.9,0.4,3.9,1.2,5.7c0.8,1.8,1.9,3.4,3.2,4.8s3,2.4,4.8,3.2c1.8,0.7,3.7,1.1,5.7,1.1h45V70.2h-44.9
			V11z"/>
	</g>
</g>
</svg>
